X: 08098
T: ROSSI'S REEL #1
C: Bob McQuillen 2 Sept 90
B: Bob's Note Book 8 #98
%R: reel
Z: 2021 John Chambers <jc:trillian.mit.edu>
M: C
L: 1/8
K: C
cd \
| e2ec GAcd | egec G4   | A2FA GAce | dcBc d2cd |\
| e2ec GAcd | egec GEGc | Acfe dcBA | G2c2 c2  :|
|: fe \
| d2dc BGAB | cdef e2de | f2fe dcBd | cega g2eg |\
| a2af cAca | gege c2eg | fefe defg | e2c2 c2  :|
%%begintext align
%% "Shrouded in the
%% mists of antiquity" pretty well sums it up - Surely Neil Rossi
%% and I had our first encounter some time ago, perhaps at
%% the Old Joe Clarks on Arrow St. in Cambridge, MA. Neil
%% lives in Westford, VT now with lovely wife Donna, and
%% I'm glad this tune is for him. I hope it lays well on your
%% fiddle, Neil!
%%endtext

%%sep 1 1 500

%%sep 1 1 500

